X: 3807
T: Black Bull, The
R: reel
M: 4/4
K: Adorian
|:A2 ga ge ~e2|dega ge ~e2|gfdB ~B2 AB|deed (AB)GB|
A2 ga ge ~e2|dega ge ~e2|gfdB ~B2 AB|eBdB ~A3 G:|
|:AAee AAgg|Agfd eedd|eedd ggdd|dedB AB G2-|
GB A2- AB G2-|GABd eB ~B2|gfee (ef)ed|1 eBdB AAAB:|2 eBdB AAAG||

